X: 112
T: The first night in America
C: anon.
O: Ireland
B: Francis O'Neill: "The Dance Music of Ireland" (1907) no. 112
R: Double jig
Z: Transcribed by Frank Nordberg - http://www.musicaviva.com
F: http://www.musicaviva.com/abc/tunes/ireland/oneill-1001/oneill-1001-011
2.abc
M: 6/8
L: 1/8
K: G
D|GFG AFD|GFG Bcd|efg dBG|ABG AFD|GFG AFD|GFG Bcd|efg dBG|AGG G2:|
|:d|gfg bge|dcd ecA|Bdg gfg|abg afd|gfg bge|dcd ecA|Bdg dBG|AGG G2:|
W:
W:
W: From Musica Viva - http://www.musicaviva.com
W: the Internet center for free sheet music downloads.


